icons/four.svg

<svg width="48" height="48" viewBox="0 0 48 48" fill="none" xmlns="http://www.w3.org/2000/svg">
<path fill-rule="evenodd" clip-rule="evenodd" d="M25.5039 10.3361C26.2372 9.23616 27.6041 8.74586 28.8694 9.12896C30.1346 9.51205 31 10.6782 31 12.0002V27.0003H32C33.6569 27.0003 35 28.3434 35 30.0003C35 31.6571 33.6569 33.0003 32 33.0003H31V36.0002C31 37.6571 29.6569 39.0002 28 39.0002C26.3432 39.0002 25 37.6571 25 36.0002V33.0003H16C14.8936 33.0003 13.877 32.3913 13.355 31.4158L14.2305 30.9473L13.355 31.4158C12.8329 30.4404 12.8901 29.2567 13.5039 28.3362L25.5039 10.3361ZM28.2898 11.0431C27.868 10.9154 27.4124 11.0789 27.168 11.4455L15.168 29.4456C14.9634 29.7524 14.9443 30.147 15.1183 30.4721C15.2923 30.7973 15.6312 31.0003 16 31.0003H26C26.5523 31.0003 27 31.448 27 32.0003V36.0002C27 36.5525 27.4477 37.0002 28 37.0002C28.5523 37.0002 29 36.5525 29 36.0002V32.0003C29 31.448 29.4477 31.0003 30 31.0003H32C32.5523 31.0003 33 30.5525 33 30.0003C33 29.448 32.5523 29.0003 32 29.0003H30C29.4477 29.0003 29 28.5525 29 28.0003V12.0002C29 11.5596 28.7115 11.1708 28.2898 11.0431ZM26.2898 17.6487C26.7115 17.7764 27 18.1651 27 18.6058V28.0003C27 28.5525 26.5523 29.0003 26 29.0003H19.737C19.3682 29.0003 19.0294 28.7973 18.8554 28.4721C18.6813 28.147 18.7004 27.7524 18.905 27.4456L25.168 18.0511C25.4124 17.6844 25.868 17.521 26.2898 17.6487ZM21.6056 27.0003H25V21.9086L21.6056 27.0003Z" fill="black"/>
</svg>

<svg
  xmlns="http://www.w3.org/2000/svg"
  width="24"
  height="24"
  viewBox="0 0 24 24"
  fill="none"
  stroke="currentColor"
  stroke-width="2"
  stroke-linecap="round"
  stroke-linejoin="round"
>
  <path
    fill-rule="evenodd"
    d="M25.504 10.336A3 3 0 0 1 31 12v15h1a3 3 0 1 1 0 6h-1v3a3 3 0 1 1-6 0v-3h-9a3 3 0 0 1-2.645-1.584l.875-.469-.875.469a3 3 0 0 1 .149-3.08zm2.786.707a1 1 0 0 0-1.122.402l-12 18A1 1 0 0 0 16 31h10a1 1 0 0 1 1 1v4a1 1 0 1 0 2 0v-4a1 1 0 0 1 1-1h2a1 1 0 0 0 0-2h-2a1 1 0 0 1-1-1V12a1 1 0 0 0-.71-.957m-2 6.606a1 1 0 0 1 .71.957V28a1 1 0 0 1-1 1h-6.263a1 1 0 0 1-.832-1.554l6.263-9.395a1 1 0 0 1 1.122-.402M21.606 27H25V21.91z"
    clip-rule="evenodd"
  />
</svg>
